X: 152
T:Lady Charlotte Murray
M:6/8
L:1/8
C:Neil Gow
K:D
A/2G/2|"D"F2 D "D"DFA|"D"dFD AFD|"C"E=FGE =CEG|"C"=cGE "Am"=CEG|!
"D"F2 D DFD|"D"dFD AFD|"C"G=cG "A7"EFG|"D"AFD D2:|| "A7"a/2g/2|"D"f2 d "
Bm"dfd|!
"D"afd "G7"de=f|"C"e2 =c "Am"cec|"C"ge=c "A7"efg|"D"f2 d "Bm"dfd|"D"afd
"A"efg|!
"Bm"fdf "A7"ece|"D"dAF ","D2 "A7"a/2g/2|"D"f2 d dfd|afd "G"de=f|"C"e2 =c
 cec|!
"C"ge=c "A"efg|"F#m"afa "A7"geg|"D"fdf "A"edc|"D"Adc "A7"cBc|"D"dAF D2||
